X: 0
T: St Clement
Z: Clement C. Scholefield, 1874
Z: Public  domain
L: 1/4
M: 3/4
Q: 1/4=100
V: P1 name="Unnamed-000"
%%MIDI program 1 19
V: P2 name="Unnamed-001"
%%MIDI program 2 19
K: G
[V: P1]  D [DB] [Ec] | [DB] [Fd] B | [FA] [EG] A | E [CG] [CF] | [CE] [CD] B, | D [EG] A | [DB] [DA] ^C | [^CG] [D2F2] | D [DB] [Ec] | [DB] [Fd] B | [FA] [EG] A | E [CG] [CF] | [A,E] D E | [CF] [B,G] [DB] | [EA] E G | [DF] [D2-G2-] | [D2G2]z|]
[V: P2]  D, [G,,2G,2] | G, [D,A,] D | [D,C] [E,B,] [A,,C] | [C,A,] [D,A,] [D,A,] | [E,G,] [F,A,] [G,B,] | [F,A,] [E,2B,2] | [E,G,] [A,,2E,2] | [A,,A,] [D,2A,2] | [F,A,] G,2 | G, [D,A,] D | [D,C] [E,B,] [A,,C] | [C,A,] [D,A,] [D,A,] | [C,F,] [B,,2G,2] | [D,A,] [E,G,] B,, | [C,C] [C,C] A,, | [D,A,] [G,,2-B,2-] | [G,,2B,2]z|]

